X: 34281
T: Repeal Of The Licensing Laws
R: polka
M: 2/4
K: Gmajor
G/A/|BB BA|GE D2|G>A BB|A3 G/A/|BB BA|GE D2|G>A BA|G3 G|
AA AG/A/|BB B2|A>G AB|A3 G/A/|BB BA|GE D2|G>A BA|G3|
d|d3 e|d3 B|A>G AB|A3 d|d3 e|d3 B|A>G GG|G3 d|
d3 e|g3 e|d>B AG|A3 G/A/|BB BA|GE D2|G>A BA|G3|

